client/src/asserts/icons/icn_check.svg

<svg width="16" height="16" viewBox="0 0 16 16" fill="none" xmlns="http://www.w3.org/2000/svg">
<path fill-rule="evenodd" clip-rule="evenodd" d="M14.707 3.29305C14.8946 3.48074 15 3.73528 15 4.00068C15 4.26608 14.8946 4.52062 14.707 4.70831L6.6998 12.7155C6.51211 12.9031 6.25757 13.0085 5.99217 13.0085C5.72677 13.0085 5.47223 12.9031 5.28454 12.7155L1.28096 8.71189C1.09864 8.52312 0.997757 8.27029 1.00004 8.00786C1.00232 7.74543 1.10758 7.49439 1.29316 7.30882C1.47873 7.12324 1.72977 7.01798 1.9922 7.0157C2.25463 7.01342 2.50746 7.1143 2.69623 7.29662L5.99217 10.5926L13.2917 3.29305C13.4794 3.10541 13.7339 3 13.9993 3C14.2647 3 14.5193 3.10541 14.707 3.29305Z" fill="#4B4B7C"/>
</svg>

<svg width="16" height="16" viewBox="0 0 16 16" xmlns="http://www.w3.org/2000/svg" fill="none"><path fill-rule="evenodd" clip-rule="evenodd" d="M14.707 3.293c.188.188.293.442.293.708 0 .265-.105.52-.293.708l-8.007 8.007c-.188.188-.442.293-.708.293-.265 0-.52-.105-.708-.293l-4.004-4.004c-.182-.189-.283-.442-.281-.704.002-.262.108-.513.293-.699.186-.186.437-.291.699-.293.262-.002.515.099.704.281l3.296 3.296 7.3-7.3c.188-.188.442-.293.708-.293.265 0 .52.105.708.293z" /></svg>
